X:188
T:Cil s'entremet
C:Manuscript de Montpellier (XIIIe siècle)
R:Motet
M:3/4
L:1/8
Q:1/4=176
% Last note suggests Dorian mode tune
K:C 
V:1
d4 (3cBc | d4ed | c4 (3BAG | c4d2 | 
e4cB | A4Bc | d4c2 | d3- d2z | 
c4B2 | d4e2 | d4cB | A4G2 | 
c4B2 | c4cd | e3- e2z | cBA2F2 | 
G4AB | d4 (3cBA | c4Bc | d4 (3dcB | 
A2B2G2 | A3- A2z | c4B2 | c4A2 | 
B4cd | cBA2G2 | c4A2 | G4AB | 
c3- c2z | d4G2 | A4B2 | c4e2 | 
c3- c2z | c4d2 | e4f2 | e2d2c2 | 
d4 (3cBA | G4AB | c4 (3BAG | A4Bc | 
d4cB | A3- A2z | c4de | f4d2 | 
e4f2 | e2d2c2 | d4e2 | d2c BA2 | 
c4c2 | d6- | d6 |]
V:2
A4c2 | A4G2 | F4 (3EDC | F3- F2z | 
G4A2 | D4F2 | G4A2 | G3- G2z | 
F4G2 | A4A^A | =A2G2F2 | D3- D2z | 
C4DE | F2E2D2 | C4DE | D3- D2z | 
d4 (3cBA | G4E2 | G4G2 | A3- A2z | 
F4G2 | FED2C2 | F3- F2z | F4D2 | 
E4C2 | D3- D2z | C4DE | G4 (3FED | 
F3- F2z | A4c2 | d4c2 | A2^A2=A2 | 
F3- F2z | F4 (3GFE | G4A^A | =A2G2F2 | 
G3- G2z | C4F2 | FED2C2 | D3- D2z | 
A4Bc | d4e2 | c4 (3BAG | c3- c2z | 
cBc2d2 | cBA2F2 | G4A2 | AGF2D2 | 
F4FG | A6- | A6 |]
V:3
D4C2 | D3- D2z | F4G2 | F3- F2z | 
E4D2 | A3- A2z | G4F2 | G3- G2z | 
F4E2 | D3- D2z | D4C2 | D3- D2z | 
F4G2 | F3- F2z | E4D2 | A3- A2z | 
G4F2 | G3- G2z | F4E2 | D3- D2z | 
D4C2 | D3- D2z | F4G2 | F3- F2z | 
E4D2 | A3- A2z | G4F2 | G3- G2z | 
F4E2 | D3- D2z | D4C2 | D3- D2z | 
F4G2 | F3- F2z | E4D2 | A3- A2z | 
G4F2 | G3- G2z | F4E2 | D3- D2z | 
D4C2 | D3- D2z | F4G2 | F3- F2z | 
E4D2 | A3- A2z | G4F2 | G3- G2z | 
F4E2 | D6- | D6 |]





